src/images/icons/default_achive.svg

<svg width="92" height="108" viewBox="0 0 92 108" fill="none" xmlns="http://www.w3.org/2000/svg">
<rect x="37.7852" y="31.8208" width="16.4014" height="16.4014" rx="8.20072" fill="#333333"/>
<rect x="41.3535" y="43.2415" width="9.27934" height="22.1277" rx="4.63967" fill="#333333"/>
<path d="M44.8674 2H4C2.89543 2 2 2.89543 2 4V79.5115C2 80.2186 2.37338 80.8731 2.98204 81.233L43.8748 105.413C44.4891 105.776 45.2505 105.785 45.8726 105.435L88.9512 81.2256C89.5813 80.8715 89.9713 80.2049 89.9713 79.4821V4C89.9713 2.89543 89.0759 2 87.9713 2H44.8674Z" stroke="#333333" stroke-width="4" stroke-linejoin="round"/>
</svg>

<svg width="92" height="108" fill="none" xmlns="http://www.w3.org/2000/svg"><rect x="37.785" y="31.821" width="16.401" height="16.401" rx="8.201" fill="#333"/><rect x="41.353" y="43.242" width="9.279" height="22.128" rx="4.64" fill="#333"/><path d="M44.867 2H4a2 2 0 0 0-2 2v75.511a2 2 0 0 0 .982 1.722l40.893 24.18a2 2 0 0 0 1.998.022l43.078-24.21a2 2 0 0 0 1.02-1.743V4a2 2 0 0 0-2-2H44.867z" stroke="#333" stroke-width="4" stroke-linejoin="round"/></svg>
